src/assets/img/app/onboarding/tour-currency.svg

<?xml version="1.0" encoding="utf-8"?>
<!-- Generator: Adobe Illustrator 20.1.0, SVG Export Plug-In . SVG Version: 6.00 Build 0)  -->
<svg version="1.1" id="onboarding-market-illustration"
	 xmlns="http://www.w3.org/2000/svg" xmlns:xlink="http://www.w3.org/1999/xlink" x="0px" y="0px" viewBox="0 0 375 257"
	 style="enable-background:new 0 0 375 257;" xml:space="preserve">
<style type="text/css">
	.st0{opacity:0.3;fill:url(#SVGID_1_);enable-background:new    ;}
	.st1{opacity:0.3;fill:url(#SVGID_2_);enable-background:new    ;}
	.st2{opacity:0.3;}
	.st3{fill:#13E5B6;}
	.st4{opacity:0.64;fill:none;stroke:#9012FE;stroke-width:2;stroke-linecap:square;enable-background:new    ;}
	.st5{fill:#1A2A71;stroke:#FFFFFF;stroke-width:3;}
</style>
<linearGradient id="SVGID_1_" gradientUnits="userSpaceOnUse" x1="-234.5445" y1="11.6925" x2="-234.5445" y2="12.5871" gradientTransform="matrix(247 0 0 247 58120 -2878.0242)">
	<stop  offset="0" style="stop-color:#3950B5"/>
	<stop  offset="1" style="stop-color:#162360"/>
</linearGradient>
<path class="st0" d="M187.5,257c68.2,0,123.5-55.3,123.5-123.5S255.7,10,187.5,10S64,65.3,64,133.5S119.3,257,187.5,257z"/>
<linearGradient id="SVGID_2_" gradientUnits="userSpaceOnUse" x1="187.5" y1="195.0305" x2="187.5" y2="45.0305">
	<stop  offset="0" style="stop-color:#3950B5"/>
	<stop  offset="1" style="stop-color:#202F77"/>
</linearGradient>
<polygon class="st1" points="54.3,137.3 97.7,107.8 140.1,129.9 184.6,90.7 222.9,90.7 247.7,57.5 280.8,77.2 321.2,66.1 375,45 
	375,195 150.1,195 0.4,195 0,143.5 "/>
<g class="st2">
	<path class="st3" d="M300.2,195h-0.5v-4h0.5V195z M300.2,187h-0.5v-4h0.5V187z M300.2,179h-0.5v-4h0.5V179z M300.2,171h-0.5v-4h0.5
		V171z M300.2,163h-0.5v-4h0.5V163z M300.2,155h-0.5v-4h0.5V155z M300.2,147h-0.5v-4h0.5V147z M300.2,139h-0.5v-4h0.5V139z
		 M300.2,131h-0.5v-4h0.5V131z M300.2,123h-0.5v-4h0.5V123z M300.2,115h-0.5v-4h0.5V115z M300.2,107h-0.5v-4h0.5V107z M300.2,99
		h-0.5v-4h0.5V99z M300.2,91h-0.5v-4h0.5V91z M300.2,83h-0.5v-4h0.5V83z M300.2,75h-0.5v-4h0.5V75z"/>
	<path class="st3" d="M225.2,195h-0.5v-4h0.5V195z M225.2,187h-0.5v-4h0.5V187z M225.2,179h-0.5v-4h0.5V179z M225.2,171h-0.5v-4h0.5
		V171z M225.2,163h-0.5v-4h0.5V163z M225.2,155h-0.5v-4h0.5V155z M225.2,147h-0.5v-4h0.5V147z M225.2,139h-0.5v-4h0.5V139z
		 M225.2,131h-0.5v-4h0.5V131z M225.2,123h-0.5v-4h0.5V123z M225.2,115h-0.5v-4h0.5V115z M225.2,107h-0.5v-4h0.5V107z M225.2,99
		h-0.5v-4h0.5V99z M225.2,91h-0.5v-3.2h0.5V91z"/>
	<path class="st3" d="M150.2,195h-0.5v-4h0.5V195z M150.2,187h-0.5v-4h0.5V187z M150.2,179h-0.5v-4h0.5V179z M150.2,171h-0.5v-4h0.5
		V171z M150.2,163h-0.5v-4h0.5V163z M150.2,155h-0.5v-4h0.5V155z M150.2,147h-0.5v-4h0.5V147z M150.2,139h-0.5v-4h0.5V139z
		 M150.2,131h-0.5v-4h0.5V131z M150.2,123h-0.5v-2h0.5V123z"/>
	<path class="st3" d="M75.2,195h-0.5v-4h0.5V195z M75.2,187h-0.5v-4h0.5V187z M75.2,179h-0.5v-4h0.5V179z M75.2,171h-0.5v-4h0.5V171
		z M75.2,163h-0.5v-4h0.5V163z M75.2,155h-0.5v-4h0.5V155z M75.2,147h-0.5v-4h0.5V147z M75.2,139h-0.5v-4h0.5V139z M75.2,131h-0.5
		v-4h0.5V131z"/>
</g>
<path class="st3" d="M0,144.5c-0.5,0-0.9-0.4-1-0.9c-0.1-0.5,0.3-1,0.9-1.1l54.1-6.2L97.1,107c0.3-0.2,0.7-0.2,1-0.1l41.8,21.8
	l44-38.7c0.2-0.2,0.4-0.2,0.7-0.2h37.8l24.5-32.8c0.3-0.4,0.9-0.5,1.3-0.3l32.7,19.5l39.9-11l53.8-21.1c0.5-0.2,1.1,0.1,1.3,0.6
	c0.2,0.5-0.1,1.1-0.6,1.3l-53.8,21.1c0,0-0.1,0-0.1,0l-40.4,11.1c-0.3,0.1-0.5,0-0.8-0.1L248,58.9l-24.3,32.5
	c-0.2,0.3-0.5,0.4-0.8,0.4H185l-44.2,39c-0.3,0.3-0.8,0.3-1.1,0.1L97.8,109l-42.9,29.2c-0.1,0.1-0.3,0.1-0.4,0.2l-54.3,6.2
	C0.1,144.5,0,144.5,0,144.5z"/>
<g>
	<path id="Line_1_" class="st4" d="M187.5,48.5v146"/>
	<circle id="dot" class="st5" cx="187.5" cy="89.5" r="4.5"/>
</g>
</svg>

<?xml version="1.0" encoding="utf-8"?>
<!-- Generator: Adobe Illustrator 23.0.0, SVG Export Plug-In . SVG Version: 6.00 Build 0)  -->
<svg version="1.1" id="onboarding-market-illustration"
	 xmlns="http://www.w3.org/2000/svg" xmlns:xlink="http://www.w3.org/1999/xlink" x="0px" y="0px" viewBox="0 0 375 257"
	 style="enable-background:new 0 0 375 257;" xml:space="preserve">
<style type="text/css">
	.st0{opacity:0.5;fill:#DEE2E6;enable-background:new    ;}
	.st1{opacity:0.44;fill:#10263E;enable-background:new    ;}
	.st2{opacity:0.6;fill:#10263E;enable-background:new    ;}
	.st3{fill:#FFFFFF;}
	.st4{fill:#CCD1D6;}
	.st5{fill:#A9B2BA;}
	.st6{opacity:0.7;fill:#F79420;enable-background:new    ;}
	.st7{fill:#E5E8EA;}
	.st8{fill:#D3D7DC;}
	.st9{fill:#495057;}
	.st10{fill:none;stroke:#FFFFFF;stroke-width:3;}
</style>
<g>
	<path class="st0" d="M294.6,195H188.5v0.5h-2V195h-36.4H80.4c21.3,37.1,61.3,62,107.1,62S273.3,232.1,294.6,195 M187.5,10
		C120.7,10,66.2,63.1,64.1,129.5l33-22.5c0.2-0.1,0.4-0.2,0.6-0.2c0.1,0,0.3,0,0.4,0.1l41.8,21.8l44-38.7c0.2-0.2,0.4-0.2,0.7-0.2
		h1.9V47.5h2v42.3h33.9L246.9,57c0.2-0.3,0.5-0.4,0.9-0.4c0.2,0,0.3,0,0.4,0.1l32.7,19.5l13.9-3.8C273.6,35.1,233.5,10,187.5,10"/>
	<path class="st1" d="M74.7,195v-4h0.5v4H74.7 M64,132l-9.1,6.2c-0.1,0.1-0.3,0.1-0.4,0.2l-54.3,6.2c-0.1-0.1-0.2-0.1-0.2-0.1
		L0.4,195h80c-1.9-3.3-3.6-6.6-5.2-10v2h-0.5v-3.1C67.8,168.5,64,151.4,64,133.5C64,133,64,132.5,64,132 M299.7,195v-4h0.5v4H299.7
		 M375,46.1l-53.5,21h-0.1l-21.2,5.8V75h-0.5v-1.9l-3.9,1.1c1.4,2.5,2.7,5.1,3.9,7.7V79h0.5v3.9c6.9,15.4,10.8,32.6,10.8,50.6
		s-3.9,35.1-10.8,50.6v2.9h-0.5v-1.8c-1.5,3.4-3.2,6.6-5.1,9.8H375V46.1"/>
	<path class="st2" d="M149.7,195v-4h0.5v4H149.7 M149.7,187v-4h0.5v4H149.7 M74.7,179v-4h0.5v4H74.7 M149.7,179v-4h0.5v4H149.7
		 M74.7,171v-4h0.5v4H74.7 M149.7,171v-4h0.5v4H149.7 M74.7,163v-4h0.5v4H74.7 M149.7,163v-4h0.5v4H149.7 M74.7,155v-4h0.5v4H74.7
		 M149.7,155v-4h0.5v4H149.7 M74.7,147v-4h0.5v4H74.7 M149.7,147v-4h0.5v4H149.7 M74.7,139v-4h0.5v4H74.7 M149.7,139v-4h0.5v4H149.7
		 M74.7,131v-4h0.5v4H74.7 M149.7,131v-4h0.5v4H149.7 M186.5,91.8H185l-34.8,30.7v0.5h-0.5v-0.1l-8.9,7.9c-0.2,0.2-0.4,0.2-0.6,0.2
		c-0.2,0-0.4,0-0.5-0.1L97.8,109L64,132c0,0.5,0,1,0,1.5c0,17.9,3.8,35,10.7,50.4V183h0.5v2c1.6,3.4,3.3,6.8,5.2,10h69.7h36.4V91.8
		 M224.7,195v-4h0.5v4H224.7 M224.7,187v-4h0.5v4H224.7 M224.7,179v-4h0.5v4H224.7 M299.7,179v-4h0.5v4H299.7 M224.7,171v-4h0.5v4
		H224.7 M299.7,171v-4h0.5v4H299.7 M224.7,163v-4h0.5v4H224.7 M299.7,163v-4h0.5v4H299.7 M224.7,155v-4h0.5v4H224.7 M299.7,155v-4
		h0.5v4H299.7 M224.7,147v-4h0.5v4H224.7 M299.7,147v-4h0.5v4H299.7 M224.7,139v-4h0.5v4H224.7 M299.7,139v-4h0.5v4H299.7
		 M224.7,131v-4h0.5v4H224.7 M299.7,131v-4h0.5v4H299.7 M224.7,123v-4h0.5v4H224.7 M299.7,123v-4h0.5v4H299.7 M224.7,115v-4h0.5v4
		H224.7 M299.7,115v-4h0.5v4H299.7 M224.7,107v-4h0.5v4H224.7 M299.7,107v-4h0.5v4H299.7 M224.7,99v-4h0.5v4H224.7 M299.7,99v-4h0.5
		v4H299.7 M299.7,91v-4h0.5v4H299.7 M248,58.9l-22.8,30.5V91h-0.5v-0.9l-1,1.3c-0.2,0.3-0.5,0.4-0.8,0.4h-34.4V195h106.1
		c1.8-3.2,3.5-6.5,5.1-9.8V183h0.5v1.1c6.9-15.4,10.8-32.6,10.8-50.6s-3.9-35.1-10.8-50.6V83h-0.5v-1.2c-1.2-2.6-2.5-5.2-3.9-7.7
		L281,78.2c-0.1,0-0.2,0-0.2,0c-0.2,0-0.3-0.1-0.6-0.1L248,58.9"/>
	<polyline class="st3" points="299.8,71 299.7,71 299.7,71 299.8,71 	"/>
	<path class="st4" d="M300.2,79h-0.5v2.8c0.2,0.4,0.3,0.7,0.5,1.1V79 M300.2,72.9l-0.5,0.1v2h0.5V72.9"/>
	<path class="st5" d="M300.2,175h-0.5v4h0.5V175 M300.2,167h-0.5v4h0.5V167 M300.2,159h-0.5v4h0.5V159 M300.2,151h-0.5v4h0.5V151
		 M300.2,143h-0.5v4h0.5V143 M300.2,135h-0.5v4h0.5V135 M300.2,127h-0.5v4h0.5V127 M300.2,119h-0.5v4h0.5V119 M300.2,111h-0.5v4h0.5
		V111 M300.2,103h-0.5v4h0.5V103 M300.2,95h-0.5v4h0.5V95 M300.2,87h-0.5v4h0.5V87 M299.7,81.8V83h0.5v-0.1
		C300,82.6,299.9,82.2,299.7,81.8"/>
	<path class="st4" d="M300.2,184.1c-0.2,0.4-0.3,0.7-0.5,1.1v1.8h0.5V184.1"/>
	<path class="st5" d="M300.2,183h-0.5v2.2c0.2-0.4,0.3-0.7,0.5-1.1V183"/>
	<polyline class="st4" points="300.2,191 299.7,191 299.7,195 300.2,195 300.2,191 	"/>
	<path class="st5" d="M225.2,191h-0.5v4h0.5V191 M225.2,183h-0.5v4h0.5V183 M225.2,175h-0.5v4h0.5V175 M225.2,167h-0.5v4h0.5V167
		 M225.2,159h-0.5v4h0.5V159 M225.2,151h-0.5v4h0.5V151 M225.2,143h-0.5v4h0.5V143 M225.2,135h-0.5v4h0.5V135 M225.2,127h-0.5v4h0.5
		V127 M225.2,119h-0.5v4h0.5V119 M225.2,111h-0.5v4h0.5V111 M225.2,103h-0.5v4h0.5V103 M225.2,95h-0.5v4h0.5V95 M225.2,89.4
		l-0.5,0.7V91h0.5V89.4"/>
	<path class="st5" d="M150.2,191h-0.5v4h0.5V191 M150.2,183h-0.5v4h0.5V183 M150.2,175h-0.5v4h0.5V175 M150.2,167h-0.5v4h0.5V167
		 M150.2,159h-0.5v4h0.5V159 M150.2,151h-0.5v4h0.5V151 M150.2,143h-0.5v4h0.5V143 M150.2,135h-0.5v4h0.5V135 M150.2,127h-0.5v4h0.5
		V127 M150.2,122.5l-0.5,0.4v0.1h0.5V122.5"/>
	<path class="st5" d="M75.2,175h-0.5v4h0.5V175 M75.2,167h-0.5v4h0.5V167 M75.2,159h-0.5v4h0.5V159 M75.2,151h-0.5v4h0.5V151
		 M75.2,143h-0.5v4h0.5V143 M75.2,135h-0.5v4h0.5V135 M75.2,127h-0.5v4h0.5V127"/>
	<path class="st4" d="M74.7,183.9v3.1h0.5v-2C75,184.6,74.9,184.2,74.7,183.9"/>
	<path class="st5" d="M75.2,183h-0.5v0.9c0.2,0.4,0.3,0.7,0.5,1.1V183"/>
	<polyline class="st4" points="75.2,191 74.7,191 74.7,195 75.2,195 75.2,191 	"/>
	<path class="st6" d="M0,144.5c-0.5,0-0.9-0.4-1-0.9s0.3-1,0.9-1.1l54.1-6.2L97.1,107c0.3-0.2,0.7-0.2,1-0.1l41.8,21.8l44-38.7
		c0.2-0.2,0.4-0.2,0.7-0.2h37.8L246.9,57c0.3-0.4,0.9-0.5,1.3-0.3l32.7,19.5l39.9-11l53.8-21.1c0.5-0.2,1.1,0.1,1.3,0.6
		c0.2,0.5-0.1,1.1-0.6,1.3l-53.8,21.1h-0.1L281,78.2c-0.3,0.1-0.5,0-0.8-0.1L248,58.9l-24.3,32.5c-0.2,0.3-0.5,0.4-0.8,0.4H185
		l-44.2,39c-0.3,0.3-0.8,0.3-1.1,0.1L97.8,109l-42.9,29.2c-0.1,0.1-0.3,0.1-0.4,0.2l-54.3,6.2C0.1,144.5,0,144.5,0,144.5"/>
	<path class="st7" d="M188.5,195h-2v0.5h2V195 M188.5,47.5h-2v42.3h2V47.5"/>
	<polyline class="st8" points="188.5,91.8 186.5,91.8 186.5,195 188.5,195 188.5,91.8 	"/>
	<polyline class="st3" points="188.5,89.8 186.5,89.8 186.5,91.8 188.5,91.8 188.5,89.8 	"/>
	<circle class="st9" cx="187.5" cy="89.5" r="4.5"/>
	<circle class="st10" cx="187.5" cy="89.5" r="4.5"/>
</g>
</svg>
